X:1
T:Just my stuff
T:Just my stuff
T:Joe Hisaishi Arr. By SyafifiqZ1
L:1/8
Q:1/4=90
M:4/4
K:F
V:1 treble nm="Flute" snm="Fl."
V:1
 Aeed e3 e | g d6 A | eede e3 e | g6 eg | aaaa a3 a | g2 d2 e4 | ddde d2 A2 | e8 | Aeed e3 e | %9
 g d6 A | eede e3 e | g6 eg | aaaa a3 a | g2 d2 e4 |[K:C] ddde d2 A2 | c8 | aaab a3 a | c'2 b2 e4 | %18
 d2 g2 e2 de | bbbc' b3 e | c'2 b2 e3 e | a2 gf g4- | g2 eg a2 c'2 | b e2 g a4- | a2 eg a2 e'2 | %25
 d' b2 c' c'4- | c'2 eg a2 c'2 | b e2 g a4- | a4 z4 |] %29

